X:1
T:Hold the Fort
M:4/4
L:1/4
K:G
 z2 z D| D- D/2E/2 D B,| G- G/2A/2 G E| D- D/2E/2 D B,| A,3 D| D- D/2E/2 D B,|\
 G- G/2A/2 G E| F- F/2G/2 F E| D- ^D- E- F| G- G/2G/2 G- G/2G/2| G D B, D|\
 E C E G| F- D- E- F| G- G/2G/2 G- G/2G/2| A G F E| D- D/2D/2 E F|\
 G3 z|
